X: 42809
T: Whiz, The
R: slip jig
M: 9/8
K: Gminor
M:7/8
|:G2 D GD GA|BBG BG Bc|ddA cB BA|1 AGG G^F GA:|
[2 AGG GB d^f||
|:g2 f fe ef|edd d^c de|ddA cB BA|1 AGG GB d^f:|
[2 AGG G2 z2||
K: Gmaj
|:G2 D GD GA|BBG BG Bc|ddA cc BB|1 AGG GF GA:|
[2 AGG GB df||
|:g2 f fe ef|edd d^c de|ddA cc BB|1 AGG GB df:|
[2 AGG G2 z2||

